X: 1
T: Old Kentucky
%O: from Viola Ruth
B: Lee Owens "Advanced Square Dance Figures of the West and Southwest" p.40
R: reel
Z: 2010 John Chambers <jc:trillian.mit.edu>
M: 2/4
L: 1/16
K: D
(dB) |\
"D"A2F2 FEDF | A2F2 F2(dB) | A2F2 FEDF | "A7"G2[A2E2] [A2E2](dB) |
"D"A2F2 FEDF | "G"A2d2 fgfe | "A7"d2[A2F2] ABAG |[1 "D"F2D2 D2 :|[2 "D"F2D2 D4 ||
|: "D"Ad2f eeff | d2f2 [A4F4] | Ad2f fefg | "A7"a3e e4 |
"D"f3a abaf | "G"d2e2 f3e | "D"d2A2 "A7"ABAG | "D"F2[D2A,2] [D4A,4] :|

%%sep 1 1 500

